X:61
T:Red Haired Lass
C:Rick Weidley
M:6/8
F:http://blackrosetheband.googlepages.com/ABCTUNES.ABC May 2009
R:
K:Em
D |: "Em"EBB BAB | dBA BAG | "Bm"FBB BAB | dBA BAF |
"C"Gcc cde | edc cde | "D"fga def | ABd FGA :||
|: "G"BAB dcB | "C"cde A2G | "D"FAc edc | "G"dBG "D"cAF|
"G"BAB dcB | "C"cde g2e | "D"fga def |1 "G"gdB G2A :|2 "G"gdB G3 ||
